packages/tokens/icons/levelUp/size32Px.svg

<svg viewBox="0 0 32 32" fill="none" xmlns="http://www.w3.org/2000/svg" width="1em" height="1em"><path d="M2.5 29.5L2.5 26.5C2.5 24.2909 4.29086 22.5 6.5 22.5H13.5C15.7091 22.5 17.5 24.2909 17.5 26.5V29.5" stroke="currentColor" stroke-linecap="round"/><path d="M10 18.5C11.6569 18.5 13 17.1569 13 15.5C13 13.8431 11.6569 12.5 10 12.5C8.34315 12.5 7 13.8431 7 15.5C7 17.1569 8.34315 18.5 10 18.5Z" stroke="currentColor" stroke-linecap="round" stroke-linejoin="round"/><path d="M18.5 6.93875L22.2506 3.93826C22.981 3.35391 24.019 3.35391 24.7494 3.93826L28.5 6.93875M18.5 11.4388L22.2506 8.43826C22.981 7.85391 24.019 7.85391 24.7494 8.43826L28.5 11.4388M18.5 16.4388L22.2506 13.4383C22.981 12.8539 24.019 12.8539 24.7494 13.4383L28.5 16.4388" stroke="currentColor" stroke-linecap="round"/></svg>

<svg xmlns="http://www.w3.org/2000/svg" fill="none" viewBox="0 0 32 32" width="1em" height="1em"><path stroke="currentColor" stroke-linecap="round" d="M2.5 29.5v-3a4 4 0 0 1 4-4h7a4 4 0 0 1 4 4v3"/><path stroke="currentColor" stroke-linecap="round" stroke-linejoin="round" d="M10 18.5a3 3 0 1 0 0-6 3 3 0 0 0 0 6Z"/><path stroke="currentColor" stroke-linecap="round" d="m18.5 6.939 3.75-3a2 2 0 0 1 2.5 0l3.75 3m-10 4.5 3.75-3a2 2 0 0 1 2.5 0l3.75 3m-10 5 3.75-3a2 2 0 0 1 2.5 0l3.75 3"/></svg>
